Adwaita++/status/16/user-trash-full.svg

<svg height="16" width="16.001" xmlns="http://www.w3.org/2000/svg">
  <path d="m12 2v-.969h-7v.969zm.531-1.969c.49 0 .796.229 1.031.469.236.24.438.559.438 1.031v.469h2v2h-15v-2h2v-.375c.024-.43.17-.752.406-1.031a1.53 1.53 0 0 1 1.156-.532v-.03h7.969zm-8.531 4.969h-2c-1.674 2.927-1.138 5.854 0 8.781.435 1.12.982 2.219 2.188 2.219h8.625c1.205 0 1.776-1.09 2.187-2.219 1.042-2.861 1.599-5.754 0-8.781h-2c1.721 2.948.985 5.97 0 9h-9c-1.096-3.033-1.631-6.05 0-9zm4.969-.016v8.016h-.969v-8.017zm-1.969 0c-1.762 2.223-.83 5.631 0 8.017h-1c-.825-2.309-1.84-5.628 0-8.017zm3.969 0c1.817 2.609.856 5.813 0 8.017h-.969c.865-2.222 1.663-5.47 0-8.017z" fill="#474747"/>
</svg>

<svg xmlns="http://www.w3.org/2000/svg" width="16.001" height="16">
    <path d="M12 2v-.969H5V2zm.531-1.969c.49 0 .796.229 1.031.469.236.24.438.559.438 1.031V2h2v2H1V2h2v-.375c.024-.43.17-.752.406-1.031A1.53 1.53 0 0 1 4.562.062v-.03H12.531zM4 5H2C.326 7.927.862 10.854 2 13.781 2.435 14.901 2.982 16 4.188 16h8.625c1.205 0 1.776-1.09 2.187-2.219C16.042 10.92 16.599 8.027 15 5h-2c1.721 2.948.985 5.97 0 9H4c-1.096-3.033-1.631-6.05 0-9zm4.969-.016V13H8V4.983zM7 4.984c-1.762 2.223-.83 5.631 0 8.017H6c-.825-2.309-1.84-5.628 0-8.017zm3.969 0c1.817 2.609.856 5.813 0 8.017H10c.865-2.222 1.663-5.47 0-8.017z" style="line-height:normal;text-indent:0;text-align:start;text-decoration-line:none;text-transform:none;marker:none" color="#bebebe" font-weight="400" font-family="Bitstream Vera Sans" overflow="visible" fill="#474747"/>
</svg>
